X:6
T:Banshee's Wail over the Mangle Pit, The
T:Young Tom Ennis, The
R:jig
C:Trad
N:Transcribed by Alan Ng
S:as taught by Liz Carroll at the Folklore Village '95 Irish Weekend
H:She didn't have a name for it, but then Martin Hayes happened to record it under this name on his _Under the Moon_ album. In 1997 I discovered the tune on a recording by Paddy Glackin and Robbie Hannan, who identified it as "The Young Tom Ennis", to be found in O'Neill's.
Z: id:ng-jigs-6 transcribed from tape of Liz Carroll by Alan Ng, agng@students.wisc.edu, May 3, 1996
E:9
M:6/8
K:ADor
B|c2 A BcB|AGE GAB|cBA Bed|cAA A2 B|c2 A BcB|AGE GAB|cde ded|BAA A2::\
f|g2 e age|dBG Gef|g2 b agf|efg a2 b|g2 e age|dBG GAB|c2 A Bed|(3cAA A A2:|**
